UI/Core-UI/SVG/settings_solid_16px.svg

<svg width="16" height="16" viewBox="0 0 16 16" fill="none" xmlns="http://www.w3.org/2000/svg">
<path d="M13.5 8C13.502 7.66456 13.4719 7.32969 13.41 7L15 5.5L13.61 3.08L11.52 3.79C11.0238 3.385 10.4625 3.06716 9.86 2.85L9.4 1H6.61L6.15 2.85C5.53067 3.07806 4.95801 3.41691 4.46 3.85L2.4 3.08L1 5.5L2.59 7C2.52812 7.32969 2.49798 7.66456 2.5 8C2.50269 8.33569 2.53616 8.67042 2.6 9L1 10.57L2.39 13L4.49 12.26C4.98801 12.6931 5.56067 13.0319 6.18 13.26L6.64 15H9.43L9.76 13.21C10.4128 12.9888 11.0194 12.6499 11.55 12.21L13.55 12.91L15 10.5L13.41 9C13.4741 8.67062 13.5042 8.33553 13.5 8ZM8 11C7.40666 11 6.82664 10.8241 6.33329 10.4944C5.83994 10.1648 5.45542 9.69623 5.22836 9.14805C5.0013 8.59987 4.94189 7.99667 5.05764 7.41473C5.1734 6.83279 5.45912 6.29824 5.87868 5.87868C6.29824 5.45912 6.83279 5.1734 7.41473 5.05764C7.99667 4.94189 8.59987 5.0013 9.14805 5.22836C9.69623 5.45542 10.1648 5.83994 10.4944 6.33329C10.8241 6.82664 11 7.40666 11 8C11 8.79565 10.6839 9.55871 10.1213 10.1213C9.55871 10.6839 8.79565 11 8 11Z" fill="#0F1621"/>
</svg>

<svg xmlns="http://www.w3.org/2000/svg" width="16" height="16" viewBox="0 0 16 16"><rect width="16" height="16" style="fill:none"/><path d="M13.5,8a5.25,5.25,0,0,0-.09-1L15,5.5,13.61,3.08l-2.09.71a5.66,5.66,0,0,0-1.66-.94L9.4,1H6.61L6.15,2.85a5.44,5.44,0,0,0-1.69,1L2.4,3.08,1,5.5,2.59,7A5.25,5.25,0,0,0,2.5,8a5.49,5.49,0,0,0,.1,1L1,10.57,2.39,13l2.1-.74a5.44,5.44,0,0,0,1.69,1L6.64,15H9.43l.33-1.79a5.64,5.64,0,0,0,1.79-1l2,.7L15,10.5,13.41,9A4.91,4.91,0,0,0,13.5,8ZM8,11a3,3,0,1,1,3-3A3,3,0,0,1,8,11Z"/></svg>
